X: 7943
T: Condon's Frolics
R: jig
M: 6/8
K: Adorian
eAB c2 d|edc BAG|eAB c2 d|e/f/ed eag|
eAB c2 d|edc B2 A|GB/c/d gfe|dcB A2:|
eaa efg|dec BAG|e2 a ee/f/g|fed g2 f|
e2 a ee/f/g|dec B2 A|GBd gdB|A/B/cB A2:|

